X:1
T:Title
%%score { ( 1 3 ) | 2 }
L:1/8
M:4/4
K:Bb
V:1 treble nm="Grand Piano"
V:3 treble 
V:2 bass 
V:1
 z4 z2[Q:1/4=100] [B,D][CE] | [DF]2 [DF]2 [DB]2 [DF][DF] | [EG]2 [EG]2 [GB]2 [FA][EG] | %3
 [DF]2 [DF][DF] [FB]2 [Fd]2 |[M:3/4] [Fc]6 |[M:1/4] [DB][Ec] |[M:4/4] [Fd]2 [DB]2 [DB]2 [DF][DF] | %7
 [EG]2 [EG]2 [GB]2 [FA]G | F2 B2 d2 c2 |[M:3/4] [DB]6 |[M:1/4] AB |[M:4/4] c6 z2 | d6 z2 | %13
 f2 [Fd][Fc] [FB]2 [Fd]2 |[M:3/4] [Fc]6 |[M:1/4] [DB][Ec] |[M:4/4] [Fd]2 [DB]2 [DB]2 [DF][DF] | %17
 [EG]2 [EG]2 [GB]2 [FA]G | F2 B2 d2 c2 |[M:7/4] [DB]6 z2 z2 z4 |] %20
V:2
 z4 z2 [B,,F,][B,,F,] | [B,,B,]2 [B,,B,]2 [B,,F,]2 [B,,B,][B,,B,] | %2
 [E,B,]2 [E,B,]2 [E,B,]2 [E,B,][E,B,] | [B,,B,]2 [B,,B,]2 [D,B,]2 [B,,B,]2 |[M:3/4] [F,A,]6 | %5
[M:1/4] [B,,B,][B,,B,] |[M:4/4] [B,,B,]2 [B,,F,]2 [B,,F,]2 [B,,B,][B,,B,] | %7
 [E,B,]2 [E,B,]2 [E,B,]2 [E,B,][E,B,E] | [F,B,D]2 [F,B,D]2 [F,B,F]2 [F,A,E]2 |[M:3/4] [B,,B,]6 | %10
[M:1/4] z2 |[M:4/4] z2 [F,A,]2 [F,A,]2 z2 | z2 [B,,B,][B,,B,] [B,,B,]2[K:treble] [B,F][B,CF] | %13
 [B,DF]2[K:bass] [B,,B,][C,A,] [D,B,]2 [B,,B,]2 |[M:3/4] [F,A,]6 |[M:1/4] [B,,B,][B,,B,] | %16
[M:4/4] [B,,B,]2 [B,,F,]2 [B,,F,]2 [B,,B,][B,,B,] | [E,B,]2 [E,B,]2 [E,B,]2 [E,B,][E,B,E] | %18
 [F,B,D]2 [F,B,D]2 [F,B,F]2 [F,A,E]2 |[M:7/4] [B,,B,]6 z2 z2 z4 |] %20
V:3
 x8 | x8 | x8 | x8 |[M:3/4] x6 |[M:1/4] x2 |[M:4/4] x8 | x8 | x8 |[M:3/4] x6 |[M:1/4] x2 | %11
[M:4/4] z2 F2 F2 Bc | z2 FF F2 de | x8 |[M:3/4] x6 |[M:1/4] x2 |[M:4/4] x8 | x8 | x8 | %19
[M:7/4] x14 |] %20

